X:117
T:Lord Wellington (reel) 
B:CRE1.199 (Tiarna Wellington)
F:file ID: cre.1/117lord_w
N:First part is "Galway Rambler" / "Paddy Finlay's Favorite"
Q:180
M:4/4
R:reel
L:1/8
K:G
G2dG eGdB|G2dB AGEF|G2DG BGBd|gedB AGEF|
G2dG eGdB|G2dB AGEF|GB (3AGF G2AB|gedB AGE2||
gfed eB~B2|gfga bgeg|~g2fg eB~B2|gedB AG E2|
~g2fg egfa|gfga bgeg|g2gf gbaf|gedB AG E2|]

%%%

